svg/fluentui-system-icons/ic_fluent_channel_add_48_filled.svg

<svg width="48" height="48" viewBox="0 0 48 48" fill="none" xmlns="http://www.w3.org/2000/svg">
<path d="M12.25 6C9.32609 6 6.87113 8.00781 6.18865 10.7199C6.59946 10.5774 7.04069 10.5 7.5 10.5C9.70914 10.5 11.5 12.2909 11.5 14.5C11.5 16.7091 9.70914 18.5 7.5 18.5C6.96955 18.5 6.46322 18.3967 6 18.2092V35.75C6 39.2018 8.79822 42 12.25 42H24.0436C22.75 39.9794 22 37.5773 22 35C22 32.6321 22.6331 30.4121 23.7392 28.5H17.25C16.5596 28.5 16 27.9404 16 27.25C16 26.5596 16.5596 26 17.25 26H25.6191C27.985 23.5347 31.3133 22 35 22C37.5773 22 39.9794 22.75 42 24.0436V12.25C42 8.79822 39.2018 6 35.75 6H12.25ZM16 20.25C16 19.5596 16.5596 19 17.25 19H30.75C31.4404 19 32 19.5596 32 20.25C32 20.9404 31.4404 21.5 30.75 21.5H17.25C16.5596 21.5 16 20.9404 16 20.25ZM7.5 12C6.9372 12 6.41783 12.186 6 12.4998C5.39278 12.9559 5 13.6821 5 14.5C5 15.3179 5.39278 16.0441 6 16.5002C6.41783 16.814 6.9372 17 7.5 17C8.88071 17 10 15.8807 10 14.5C10 13.1193 8.88071 12 7.5 12ZM46 35C46 41.0751 41.0751 46 35 46C28.9249 46 24 41.0751 24 35C24 28.9249 28.9249 24 35 24C41.0751 24 46 28.9249 46 35ZM36 28C36 27.4477 35.5523 27 35 27C34.4477 27 34 27.4477 34 28V34H28C27.4477 34 27 34.4477 27 35C27 35.5523 27.4477 36 28 36H34V42C34 42.5523 34.4477 43 35 43C35.5523 43 36 42.5523 36 42V36H42C42.5523 36 43 35.5523 43 35C43 34.4477 42.5523 34 42 34H36V28Z" fill="#212121"/>
</svg>

<svg xmlns="http://www.w3.org/2000/svg" width="48" height="48"><path d="M12.25 6a6.253 6.253 0 0 0-6.061 4.72A4 4 0 1 1 6 18.21v17.54A6.25 6.25 0 0 0 12.25 42h11.794A12.94 12.94 0 0 1 22 35c0-2.368.633-4.588 1.74-6.5h-6.49a1.25 1.25 0 1 1 0-2.5h8.37A12.96 12.96 0 0 1 35 22c2.577 0 4.98.75 7 2.044V12.25A6.25 6.25 0 0 0 35.75 6h-23.5ZM16 20.25c0-.69.56-1.25 1.25-1.25h13.5a1.25 1.25 0 1 1 0 2.5h-13.5c-.69 0-1.25-.56-1.25-1.25ZM7.5 12A2.496 2.496 0 0 0 5 14.5 2.496 2.496 0 0 0 7.5 17a2.5 2.5 0 0 0 0-5ZM46 35c0 6.075-4.925 11-11 11s-11-4.925-11-11 4.925-11 11-11 11 4.925 11 11Zm-10-7a1 1 0 1 0-2 0v6h-6a1 1 0 1 0 0 2h6v6a1 1 0 1 0 2 0v-6h6a1 1 0 1 0 0-2h-6v-6Z"/></svg>
